src/ui/circuit.svg

<?xml version="1.0" encoding="UTF-8"?><svg xmlns="http://www.w3.org/2000/svg" width="32" height="32" viewBox="0 0 32 32"><defs><style>.uuid-245f0615-0db1-4dc4-9ad4-b4cb80cdfcc7{fill:none;}.uuid-43b290fe-a358-496d-bf8b-74f099e71e55{fill:#151515;}</style></defs><g id="uuid-233acf74-7a50-47a6-a712-818c3baeb9e6"><rect class="uuid-245f0615-0db1-4dc4-9ad4-b4cb80cdfcc7" width="32" height="32"/></g><g id="uuid-33ac4fef-b2a0-402c-ab66-8c72adbb681f"><path class="uuid-43b290fe-a358-496d-bf8b-74f099e71e55" d="M28.5,8c.82715,0,1.5-.67285,1.5-1.5v-3c0-.82715-.67285-1.5-1.5-1.5H3.5c-.82715,0-1.5.67285-1.5,1.5v25c0,.82715.67285,1.5,1.5,1.5h25c.82715,0,1.5-.67285,1.5-1.5V12.5c0-.82715-.67285-1.5-1.5-1.5h-1.5v-3h1.5ZM26.5,13h1.5v15h-11v-3.58594l2.70703-2.70703c.1875-.1875.29297-.44189.29297-.70703v-4.18427c1.1615-.41412,2-1.51379,2-2.81573,0-1.6543-1.3457-3-3-3s-3,1.3457-3,3c0,1.30194.8385,2.40155,2,2.81567v3.77026l-2.70703,2.70703c-.1875.1875-.29297.44189-.29297.70703v4H4V4h8v3.58594l-2.70703,2.70703c-.1875.1875-.29297.44189-.29297.70703v5.18427c-1.1615.41412-2,1.51379-2,2.81573,0,1.6543,1.3457,3,3,3s3-1.3457,3-3c0-1.30194-.8385-2.40161-2-2.81573v-4.7702l2.70703-2.70703c.1875-.1875.29297-.44189.29297-.70703v-4h14v2h-1.5c-.82715,0-1.5.67285-1.5,1.5v4c0,.82715.67285,1.5,1.5,1.5Z"/></g></svg>

<svg xmlns="http://www.w3.org/2000/svg" viewBox="0 0 32 32">
  <path d="M28.5 8c.827 0 1.5-.673 1.5-1.5v-3c0-.827-.673-1.5-1.5-1.5h-25C2.673 2 2 2.673 2 3.5v25c0 .827.673 1.5 1.5 1.5h25c.827 0 1.5-.673 1.5-1.5v-16c0-.827-.673-1.5-1.5-1.5H27V8h1.5Zm-2 5H28v15H17v-3.586l2.707-2.707A1 1 0 0 0 20 21v-4.184A2.996 2.996 0 0 0 22 14c0-1.654-1.346-3-3-3s-3 1.346-3 3c0 1.302.839 2.402 2 2.816v3.77l-2.707 2.707A1 1 0 0 0 15 24v4H4V4h8v3.586l-2.707 2.707A1 1 0 0 0 9 11v5.184A2.996 2.996 0 0 0 7 19c0 1.654 1.346 3 3 3s3-1.346 3-3a2.996 2.996 0 0 0-2-2.816v-4.77l2.707-2.707A1 1 0 0 0 14 8V4h14v2h-1.5c-.827 0-1.5.673-1.5 1.5v4c0 .827.673 1.5 1.5 1.5Z"/>
</svg>
